X:5
T:Polka EbBbAb (5letras) cf. CGF oct
M:2/4
L:1/16
K:Ebmaj%%MIDI gchordon
GE |: "Eb"c2BG B,2EF | "Bb7"TE2D2 D2dc | B2AF B,2FG | "Eb"TF2E2 EFGA | c2BG B,2EF | "Bb7"TE2D2 D2dc |
BAFc B2D2 |1 "Eb"E2E2 E2GE :|2 "Eb"E2E2 E2z2 [K:Bbmaj] \
|: "Bb"DEFG F2B2 | FGF2 d4 | "F7"d2c2 cdc2 | "Bb"c2B2 BcB2 |
DEFG F2B2 | FGF2 d4 | "F7"d2c2 edc2 |1 "Bb"B2B2 B2z2 :|2 "Bb"B2B2 B2cB [K:Ebmaj] \
|: "Bb7"A2D2 DFAc | "Eb"B2E2 EGBe |
"Ab"d2c2 cedc | "Eb"B4 =ABcB | "Bb7"A2D2 DFAc | "Eb"B2E2 EGBe | "Bb7"dcB2 AGF2 |1 "Eb"E2E2 E2cB :|2 "Eb"E2E2 E2"_fine"z2 || [K:Abmaj] 
|: "Ab"c2E2 EAce | "Bbm"d2F2F4 | "Eb7"d2EF GABc | "Ab"d2cd cBA2 | c2E2 EAce | "Bbm"d2F2F4 | "Db"Fdd2 "Eb7"dGB2 |
"Ab"A2A2 A2z2 :: \
"Eb7"B2E2 B2E2 | "Ab"d2c2c4 | "C7"c2B2 BcB2 | "Fm"B2A2 ABA2 | "Eb7"B2E2 B2E2 | "Ab"d2c2c4 | "Db"fed2 "Eb7"dcB2 | "Ab"A2A2 A2z2 :| 

